svg/u1f643.svg

<svg viewBox="0 0 128 128" xmlns="http://www.w3.org/2000/svg">
  <radialGradient id="face_1_" cx="-528.4" cy="-16.9" gradientTransform="matrix(-1 0 0 1 -464.8 79.8)" gradientUnits="userSpaceOnUse" r="56.9597">
    <stop offset="0.5" stop-color="#FDE030"/>
    <stop offset="0.9188" stop-color="#F7C02B"/>
    <stop offset="1" stop-color="#F4A223"/>
  </radialGradient>
  <path id="face_20_" d="M63.6,7c27.9,0,58,17.5,58,55.9s-30.1,55.9-58,55.9c-15.5,0-29.8-5.1-40.4-14.4 C11.7,94.2,5.6,79.8,5.6,62.9s6.1-31.2,17.6-41.4C33.8,12.2,48.2,7,63.6,7z" fill="url(#face_1_)"/>
  <g>
    <path d="M83.16,84.86L83.16,84.86c4.19,0,8-3.54,8-9.42c0-5.87-3.81-9.42-8-9.42l0,0c-4.19,0-8,3.54-8,9.42 C75.16,81.32,78.96,84.86,83.16,84.86z" fill="#422B0D"/>
    <g id="peepers_119_">
      <path d="M83.55,80.93L83.55,80.93c1.03,0.72,2.58,0.49,3.58-0.95c1-1.45,0.67-2.97-0.36-3.69l0,0 c-1.03-0.72-2.58-0.49-3.58,0.95S82.51,80.21,83.55,80.93z" fill="#896024"/>
    </g>
    <path d="M44.8,84.86L44.8,84.86c4.19,0,8-3.54,8-9.42c0-5.87-3.81-9.42-8-9.42l0,0c-4.19,0-8,3.54-8,9.42 C36.8,81.32,40.61,84.86,44.8,84.86z" fill="#422B0D"/>
    <g id="peepers_118_">
      <path d="M45.19,80.93L45.19,80.93c1.03,0.72,2.58,0.49,3.58-0.95s0.67-2.97-0.36-3.69l0,0 c-1.03-0.72-2.58-0.49-3.58,0.95S44.16,80.21,45.19,80.93z" fill="#896024"/>
    </g>
  </g>
  <path id="mouth_31_" d="M64.18,34.19c10.69,0,19.15,5.07,23.82,10.48c0.47,0.54,0.58,1.28,0.28,1.92 c-0.3,0.65-0.94,1.08-1.65,1.08h0c-0.32,0-0.63-0.09-0.92-0.25c-4.81-2.77-12.88-6.21-21.51-6.21h-0.14 c-8.63,0-16.7,3.43-21.51,6.21c-0.29,0.16-0.6,0.25-0.92,0.25h0c-0.7,0-1.35-0.43-1.65-1.08c-0.29-0.64-0.18-1.38,0.28-1.92 c4.67-5.42,13.13-10.48,23.82-10.48" fill="#422B0D"/>
  <path d="M111.49,29.67c5.33,8.6,8.11,18.84,8.11,30.23c0,16.9-6.1,31.2-17.6,41.4 c-10.6,9.3-25,14.5-40.4,14.5c-18.06,0-37.04-7.35-48.18-22.94c10.76,17.66,30.99,25.94,50.18,25.94c15.4,0,29.8-5.2,40.4-14.5 c11.5-10.2,17.6-24.5,17.6-41.4C121.6,50.16,118.13,38.84,111.49,29.67z" fill="#EB8F00"/>
</svg>

<svg viewBox="0 0 128 128" xmlns="http://www.w3.org/2000/svg">
  <defs>
    <radialGradient id="face_1_" cx="-63.6" cy="62.9" gradientTransform="matrix(-1 0 0 1 0 0)" gradientUnits="userSpaceOnUse" r="56.9597">
      <stop offset="0.5" stop-color="#FDE030"/>
      <stop offset="0.9188" stop-color="#F7C02B"/>
      <stop offset="1" stop-color="#F4A223"/>
    </radialGradient>
  </defs>
  <path id="face_20_" d="M63.6,7 C91.5,7 121.6,24.5 121.6,62.9 C121.6,101.3 91.5,118.8 63.6,118.8 C48.1,118.8 33.8,113.7 23.2,104.4 C11.7,94.2 5.6,79.8 5.6,62.9 C5.6,46 11.7,31.7 23.2,21.5 C33.8,12.2 48.2,7 63.6,7 Z" fill="url(#face_1_)"/>
  <path d="M83.16,84.86 L83.16,84.86 C87.35,84.86 91.16,81.32 91.16,75.44 C91.16,69.57 87.35,66.02 83.16,66.02 L83.16,66.02 C78.97,66.02 75.16,69.56 75.16,75.44 C75.16,81.32 78.96,84.86 83.16,84.86 Z" fill="#422B0D"/>
  <path d="M83.55,80.93 L83.55,80.93 C84.58,81.65 86.13,81.42 87.13,79.98 C88.13,78.53 87.8,77.01 86.77,76.29 L86.77,76.29 C85.74,75.57 84.19,75.8 83.19,77.24 C82.19,78.68 82.51,80.21 83.55,80.93 Z" fill="#896024"/>
  <path d="M44.8,84.86 L44.8,84.86 C48.99,84.86 52.8,81.32 52.8,75.44 C52.8,69.57 48.99,66.02 44.8,66.02 L44.8,66.02 C40.61,66.02 36.8,69.56 36.8,75.44 C36.8,81.32 40.61,84.86 44.8,84.86 Z" fill="#422B0D"/>
  <path d="M45.19,80.93 L45.19,80.93 C46.22,81.65 47.77,81.42 48.77,79.98 C49.77,78.54 49.44,77.01 48.41,76.29 L48.41,76.29 C47.38,75.57 45.83,75.8 44.83,77.24 C43.83,78.68 44.16,80.21 45.19,80.93 Z" fill="#896024"/>
  <path id="mouth_31_" d="M64.18,34.19 C74.87,34.19 83.33,39.26 88,44.67 C88.47,45.21 88.58,45.95 88.28,46.59 C87.98,47.24 87.34,47.67 86.63,47.67 L86.63,47.67 C86.31,47.67 86,47.58 85.71,47.42 C80.9,44.65 72.83,41.21 64.2,41.21 L64.06,41.21 C55.43,41.21 47.36,44.64 42.55,47.42 C42.26,47.58 41.95,47.67 41.63,47.67 L41.63,47.67 C40.93,47.67 40.28,47.24 39.98,46.59 C39.69,45.95 39.8,45.21 40.26,44.67 C44.93,39.25 53.39,34.19 64.08,34.19" fill="#422B0D"/>
  <path d="M111.49,29.67 C116.82,38.27 119.6,48.51 119.6,59.9 C119.6,76.8 113.5,91.1 102,101.3 C91.4,110.6 77,115.8 61.6,115.8 C43.54,115.8 24.56,108.45 13.42,92.86 C24.18,110.52 44.41,118.8 63.6,118.8 C79,118.8 93.4,113.6 104,104.3 C115.5,94.1 121.6,79.8 121.6,62.9 C121.6,50.16 118.13,38.84 111.49,29.67 Z" fill="#EB8F00"/>
</svg>
